lib/brands/icons/svg.svg

<svg xmlns="http://www.w3.org/2000/svg" fill="none" aria-hidden="true" viewBox="0 0 48 49"><g id="svg-Icon"><g id="Group"><path id="Vector" fill="black" d="M40.5207 27.5782C42.493 25.6059 42.4929 22.3966 40.5206 20.4242C39.5652 19.4687 38.2949 18.9426 36.9437 18.9426C36.6228 18.9426 36.3069 18.9719 35.9989 19.0295C37.3415 18.1111 38.2116 16.5668 38.2116 14.8496C38.2116 12.0603 35.9423 9.79101 33.153 9.79101C31.4323 9.79101 29.8853 10.6645 28.9676 12.0117C29.2713 10.4102 28.795 8.69859 27.5784 7.48195C26.623 6.5265 25.3526 6.00031 24.0014 6.00031C22.6502 6.00031 21.3798 6.5265 20.4244 7.48195C19.2077 8.69859 18.7315 10.4103 19.0352 12.0118C18.1175 10.6646 16.5704 9.79101 14.8498 9.79101C12.0605 9.79101 9.79119 12.0603 9.79119 14.8496C9.79119 16.5669 10.6612 18.1111 12.0038 19.0295C11.6957 18.9719 11.38 18.9426 11.0591 18.9426C9.70789 18.9426 8.43758 19.4688 7.48213 20.4243C6.52668 21.3797 6.00049 22.6501 6.00049 24.0012C6.00049 25.3524 6.52668 26.6227 7.48213 27.5782C8.43758 28.5336 9.70795 29.0598 11.0591 29.0598C11.3799 29.0598 11.6957 29.0306 12.0038 28.9729C10.6612 29.8913 9.79119 31.4356 9.79119 33.1528C9.79119 35.9422 12.0605 38.2114 14.8498 38.2114C16.5704 38.2114 18.1175 37.3378 19.0352 35.9907C18.7315 37.5922 19.2078 39.3039 20.4244 40.5206C21.3799 41.4759 22.6503 42.0021 24.0014 42.0021C25.3526 42.0021 26.623 41.4759 27.5784 40.5205C28.795 39.3039 29.2712 37.5921 28.9676 35.9906C29.8853 37.3378 31.4323 38.2114 33.153 38.2114C35.9423 38.2114 38.2116 35.9422 38.2116 33.1528C38.2116 31.4356 37.3415 29.8913 35.9989 28.9729C36.307 29.0306 36.6228 29.0598 36.9437 29.0598C38.2949 29.0598 39.5652 28.5336 40.5207 27.5782Z"/><path id="Vector_2" fill="#FFB13B" d="M38.9942 21.9497C37.8611 20.8167 36.0241 20.8167 34.8911 21.9497H28.9531L33.152 17.7509C34.7543 17.7509 36.0532 16.452 36.0532 14.8496C36.0532 13.2473 34.7543 11.9483 33.152 11.9483C31.5496 11.9483 30.2507 13.2473 30.2507 14.8496L26.0519 19.0484V13.1105C27.1849 11.9774 27.1849 10.1404 26.0518 9.00742C24.9188 7.8744 23.0818 7.8744 21.9488 9.00742C20.8158 10.1404 20.8158 11.9774 21.9488 13.1105V19.0484L17.7501 14.8496C17.7501 13.2473 16.4511 11.9483 14.8488 11.9483C13.2464 11.9483 11.9475 13.2473 11.9475 14.8496C11.9475 16.452 13.2464 17.7509 14.8488 17.7509L19.0475 21.9497H13.1096C11.9765 20.8166 10.1395 20.8167 9.00651 21.9497C7.87348 23.0828 7.87348 24.9197 9.00651 26.0528C10.1395 27.1858 11.9766 27.1858 13.1096 26.0528H19.0475L14.8488 30.2515C13.2464 30.2515 11.9475 31.5505 11.9475 33.1528C11.9475 34.7551 13.2464 36.0541 14.8488 36.0541C16.4511 36.0541 17.7501 34.7551 17.7501 33.1528L21.9488 28.9541V34.892C20.8158 36.025 20.8158 37.8621 21.9488 38.9951C23.0818 40.1281 24.9189 40.1281 26.0519 38.9951C27.1849 37.8621 27.1849 36.025 26.0519 34.892V28.9541L30.2507 33.1528C30.2507 34.7551 31.5496 36.0541 33.152 36.0541C34.7543 36.0541 36.0532 34.7551 36.0532 33.1528C36.0532 31.5505 34.7543 30.2515 33.152 30.2515L28.9531 26.0528H34.8911C36.0241 27.1858 37.8611 27.1858 38.9942 26.0528C40.1272 24.9197 40.1272 23.0827 38.9942 21.9497Z"/></g></g></svg>

<svg xmlns="http://www.w3.org/2000/svg" fill="none" aria-hidden="true" viewBox="0 0 48 49"><path fill="#000" d="M40.52 27.578a5.064 5.064 0 0 0 0-7.154 5.025 5.025 0 0 0-3.576-1.481 5.19 5.19 0 0 0-.945.086 5.07 5.07 0 0 0 2.213-4.18 5.065 5.065 0 0 0-5.059-5.058 5.07 5.07 0 0 0-4.185 2.22 5.07 5.07 0 0 0-1.39-4.529A5.025 5.025 0 0 0 24.001 6a5.025 5.025 0 0 0-3.577 1.482 5.07 5.07 0 0 0-1.389 4.53A5.07 5.07 0 0 0 14.85 9.79a5.064 5.064 0 0 0-5.06 5.06 5.07 5.07 0 0 0 2.213 4.18 5.136 5.136 0 0 0-.945-.087 5.025 5.025 0 0 0-3.577 1.481A5.025 5.025 0 0 0 6 24.001c0 1.351.527 2.622 1.482 3.577a5.026 5.026 0 0 0 3.577 1.482c.32 0 .637-.03.945-.087a5.07 5.07 0 0 0-2.213 4.18c0 2.79 2.27 5.058 5.059 5.058a5.07 5.07 0 0 0 4.185-2.22 5.07 5.07 0 0 0 1.39 4.53A5.026 5.026 0 0 0 24 42.002a5.026 5.026 0 0 0 3.577-1.482 5.07 5.07 0 0 0 1.39-4.53 5.07 5.07 0 0 0 4.185 2.221 5.064 5.064 0 0 0 5.059-5.058 5.07 5.07 0 0 0-2.213-4.18c.308.058.624.087.945.087a5.026 5.026 0 0 0 3.577-1.482Z"/><path fill="#FFB13B" d="M38.994 21.95a2.901 2.901 0 0 0-4.103 0h-5.938l4.199-4.2a2.901 2.901 0 1 0-2.901-2.9l-4.2 4.198v-5.937a2.901 2.901 0 1 0-4.102 0v5.937L17.75 14.85a2.901 2.901 0 1 0-2.901 2.9l4.198 4.2H13.11a2.901 2.901 0 1 0 0 4.103h5.938l-4.2 4.198a2.901 2.901 0 1 0 2.902 2.902l4.199-4.199v5.938a2.901 2.901 0 1 0 4.103 0v-5.938l4.199 4.199a2.901 2.901 0 1 0 2.901-2.901l-4.199-4.2h5.938a2.901 2.901 0 0 0 4.103-4.102Z"/></svg>
